X:337
T:El Chinguirichn
R:Xiraldilla
C:Tradicional
S:Msica Tradicional Asturiana, (C) Tello & Tito. Asturies, 2001.
S:http://pagina.de/MusTradAst <telloytito@asturies.org>
N:Cancin pa xugar colos neos ms pequeos.
A:Asturies
O:Bual
Z:Muyeres I
M:6/8
L:1/8
Q:3/8=80
K:C
|: EEF G2 G|GFE D3|FFG AAA|AGF E3|EEF G2 G|GFE D3|FFG A2 A|AGF E3 :|
